X:1
T:Title
T:Concert Etude
T:Alexander Goedicke
T:Op. 49
C:Composer
%%score 1 { ( 2 4 ) | ( 3 5 ) }
L:1/8
Q:1/4=144
M:4/4
K:Bb
V:1 treble transpose=-2 nm="B♭ Trumpet" snm="B♭ Tpt."
V:2 treble nm="Piano" snm="Pno."
V:4 treble 
V:3 bass 
V:5 bass 
V:1
[K:C]!mf!"^Allegro" .A(A/B/ .c).f .e.d.c.B | .A.E (c/B/A/^G/ .A).E (c/B/A/G/ | %2
 .A).c.B.A!>(! .G.^F.E.^D!>)! |!p! E3 E/E/ E3 E/E/ | .E.G B2 (G/A/B/c/ B2) | %5
 (G/A/B/c/ B/A/G/^F/ E/F/G/A/ B2) | .E/!<(!.E/.e/.e/ .d/.d/.e/.e/ .c/.c/.d/.d/ .B/.B/.c/.c/!<)! | %7
!f! .A!p!(A/B/ .c).f .e.d.c.B | (A/^G/A/B/ .c).f .e.d.c.B | A(A/B/"_cresc." cd/c/ Bc/B/ AB/A/ | %10
 G)!<(!(G/A/ BA/B/ cB/c/ dc/d/!<)! |!f! e) z (c/d/c/B/) (B/^c/B/^A/) (A/B/A/B/) | %12
 .^F.B.d.^f .F.^A.^c.f | B3 z z4 | z8 | z8 | z8 | z8 | z8 | z8 | %20
 z!p! .c/.c/ ._B/.B/.c/.c/ .A/.A/.B/.B/ .G/.G/.A/.A/ | %21
 .F/.F/.d/.d/ .c/.c/.d/.d/ ._B/.B/.c/.c/ .A/.A/.B/.B/ | %22
!<(! .G/.G/.e/.e/ .d/.d/.e/.e/ .c/.c/.d/.d/ ._B/.B/.c/.c/!<)! | .AA/A/ A2- .AA/A/ A2- | %24
 .A"_cresc."A/A/ .AA/A/ .AA/A/ .A.F |!p! .D!<(!.B,.F.D .^G.F.B.G | .^c._B.e.c .=g.e._b.a!<)! | %27
!f! f2 z2 z4 | z8 | z8 | z8 |!mf! .A(A/B/ .c).f .e.d.c.B | .A.E (c/B/A/^G/ .A).E (c/B/A/G/ | %33
 .A).c.B.A!>(! .G.^F.E.^D!>)! |!p! E3 E/E/ E3 E/E/ | .E.G B2 (G/A/B/c/ B2) | %36
 (G/A/B/c/ B/A/G/^F/ E/F/G/A/ B2) |!<(! .E/.E/.e/.e/ .d/.d/.e/.e/ .c/.c/.d/.d/ .B/.B/.c/.c/!<)! | %38
!<(! A3 A/A/ A3 A/A/ | A(A/B/ c)(c/d/ e)(c/d/ e).^f!<)! |!f!!>(! g3 G/G/ G3 G/G/!>)! | %41
!mp! G(G/A/ _B)!<(!(B/c/ d)(B/c/ d).e!<)! |!mf! f!<(! (F/G/ A)(A/_B/ c)(A/=B/ c).d!<)! | %43
!f! !>!e3 E E2 z2 | z8 | z8 | z4 z2!mf!!<(! EE/E/!<)! |!f! c4 c4 | (cdec) d2 (cB) | %49
 c2 (cd) (ef) g2 | g2 (fe) !tenuto!d2 !tenuto!e2 | f4 d4 | (defd) e2 (d^c) | d2 (de) (fg) a2 | %54
 a2 (gf) !tenuto!e2 !tenuto!d2 |!p! c4 c4 |"_cresc." (cdec) d2 (cB) |!mf! c4 c4 | %58
!>(! (cdec) d2 (cB)!>)! |!p! .c/.c/.e/.e/ .d/.d/.e/.e/ .c/.c/.e/.e/ .d/.d/.e/.e/ | %60
!p! .c/.c/.e/.e/ .d/.d/.e/.e/ .c/.c/.e/.e/ .d/.d/.e/.e/ | %61
 .G/!<(!.G/.A/.A/ .B/.B/.c/.c/ .B/.B/.c/.c/ .d/.d/.e/.e/ | %62
 .A/.A/.B/.B/ .c/.c/.d/.d/ .c/.c/.d/.d/ .e/.e/.^f/.f/!<)! |!f! !>!g3 G G2 z2 | z8 | z8 | z8 | z8 | %68
 z8 | z8 | z8 |!mf! .A!p!(A/B/ .c).f .e.d.c.B | .A.E (c/B/A/^G/ .A).E (c/B/A/G/ | %73
 .A).c.B.A!>(! .G.^F.E.^D!>)! |!p! E3 E/E/ E3 E/E/ | .E.G B2 (G/A/B/c/ B2) | z8 | %77
!p! .^F.A ^c2 (A/B/c/d/ c2) | z8 |!p! (^G"_cresc."B).^d.d!>(! (^F2 ^E2)!>)! | %80
!mf! (_B_d).=f.f!>(! (_A2 =G2)!>)! | %81
!mf!!<(! .^F/.F/.^C/.C/ .F/.F/.^A/.A/ .^c/.c/.F/.F/ .A/.A/.c/.c/!<)! | %82
!f! .^f/.f/.^c/.c/ .^A/!>(!.A/.^F/.F/ .c/.c/.A/.A/ .F/.F/.^C/.C/!>)! | %83
!<(! .=F/.F/.D/.D/ .B,/.B,/.G/.G/ ._A/.A/.F/.F/ .D/.D/._B/.B/ | %84
 .=B/.B/.F/.F/ ._A/.A/.B/.B/!<)!!>(! .d/.d/.B/.B/ .A/.A/.F/.F/!>)! | c2 z2 z4 | z8 | z8 | %88
 z4 z2!f!!<(! EE/E/!<)! |!ff! A4 A4 | (AB^cA) B2 (A^G) | A2 (AB) (^cd) e2 | %92
 e2 (d^c) !tenuto!B2 !tenuto!c2 | d4 B4 | (B^cdB) c2 (B^A) | B2!<(! (B^c) (de)!<)! ^f2 | %96
!>(! ^f2 (ed) (!tenuto!^c2 B2)!>)! |!mf! A4 A4 | (AB^cA) B2 (A^G) | A4 A4 | (AB^cA) B2 (A^G) | %101
!p! .A/"_cresc.".A/.^c/.c/ .B/.B/.c/.c/ .A/.A/.c/.c/ .B/.B/.c/.c/ | %102
 .A/.A/.^c/.c/ .B/.B/.c/.c/ .A/.A/.c/.c/ .B/.B/.c/.c/ | %103
 .E/.E/.^F/.F/ .^G/.G/.A/.A/!<(! .G/.G/.A/.A/ .B/.B/.^c/.c/ | %104
 .^F/.F/.^G/.G/ .A/.A/.B/.B/ .A/.A/.B/.B/ .^c/.c/.^d/.d/!<)! | %105
!f! !>!e z z2!ff![Q:1/4=132] !>!=f2[Q:1/4=120] !>!^f2 | %106
"_ritten."[Q:1/4=112] a2- a>A[Q:1/4=106] A2 B2 |[Q:1/4=100] !trill(!Te4{^de} !trill(!Tf4{ef} | %108
"_rallen."[Q:1/4=80] ge[Q:1/4=70]c=d[Q:1/4=60] e!>!^f[Q:1/4=50]!>!^g!>!e | %109
[Q:1/4=144]"^Allegro""^a tempo"!ff! a!p!(A/B/ .c).=f .e.d.c.B | A3 A/A/ A3 (B | %111
 .c)(A/B/ .c).=f .e.d.c.B | A3 A/A/ A3 (B | c3) A/A/ A3 (B |"_dim." .c).A.B.d .c.A.B.e | %115
 .c.A.B.d .c.A.B.e | (d.^c) z2 (^G.A) z2 | (D.^C) z2 z4 | z4!mf! !>!f2 !>!=c2 | %119
!p! (cd) !tenuto!_B2 (A=B) !tenuto!^G2 | .A(c/d/ .e).c .B.A.^G.B | .A(c/d/ .e).c .B.A.^G.B | %122
"_dim." .E.A.F.=G .E.A.F.=G | .E.A.F.=G .E.A.F.=G |!>(! .E2 .A2 .c2 .e2 | %125
 .a2!>)! z2!pp! .eE/E/ E/E/E/E/ | .A z z2 z4 |] %127
V:2
 .[GBdg] z z!mf! .[!courtesy!_E^F] .[DG]2 z .[FA] | .[DG]2 z .[^FA] .[DG]2 z .[EF] | %2
 .[DG] z [Bd]2 [DA]2 (D^C) | [F,A,D][K:bass]!>(! .B,.A,.G, .F,.=E,.D,.^C,!>)! |!p! .D,.F, A,4 A,2 | %5
 .D,.A,, A,4[K:treble] [G,A,=E]2 | [F,A,F] z!<(! [!courtesy!=C^F]2 [B,G]2 [CDA]2!<)! | %7
!f! [B,DB] z z!p! .[E^F] .[DG]2 z .[FA] | .[GB].E.D.C[K:bass] (B,/C/A,/B,/ .G,).D, | %9
 G, z[K:treble]"_cresc." [=EB^c]2 [DAd]2 [G!courtesy!^c=e]2 | %10
!<(! [Fdf]2 [=CFA]2 [B,FB]2 [!courtesy!_EAc]2!<)! |!f! [DBd] z ((([B,FB]2 [=B,FA]2))) (^GA) | %12
 [A,C=E](=e/d/ c/=B/A/=F/) (E/F/E/^D/ E/=D/C/=B,/) |!p! A,3 A,/A,/ A,3 A,/A,/ | %14
 A,.F.=E.D .C.=B,.A,.B, | [A,C]3 [A,C]/[A,C]/ [A,C]3 [A,C]/[A,C]/ | %16
 z"_cresc." .G.F.!courtesy!_E .D.C.=B,.C | [=B,D]3 [B,D]/[B,D]/ [B,D]3 [B,D]/[B,D]/ | %18
 z .G.E.F .D.E.C.D |!f! [G,=B,G]3 [G,B,G]/[G,B,G]/ [G,B,G]3 [G,B,G]/[G,B,G]/ | %20
!p! [G,G]3 G/G/"_cresc." G3 G/G/ | G3 G/G/ G3 G/G/ | G3 G/G/ G3 G/G/ | Gec_A FdBG | Ec_AF DBGE | %25
!p! [=A,C]3 [A,C]"_cresc." [A,C]3 [A,C] | [_A,=B,]3 [A,B,] [A,B,]3 [FGd] | %27
!f! [Ece]3 [Cc]/[Cc]/ [Cc]3 [DF=Bd] | [EGce]3 [Cc]/[Cc]/ [Cc]3 [F=Bd] | [Ece]2 [CE]2 [CD]2 [CDA]2 | %30
 [B,DGB]2 !>![GBg]2 !>![GA]2 !>![^Fd^f]2 |!ff! .[GBdg]2 z!p! .[E^F] .[DG]2 z .[FA] | %32
 .[DG]2 z .[^FA] .[DG]2 z .[EF] | .[DG]2 [Bd]2 A2 D^C | %34
[K:bass] .[F,A,D].B,.A,.G,!>(! .F,.=E,.D,.^C,!>)! | .D,.A,,.^C,.A,, .D,.A,,.C,.A,, | %36
 .D,.F, A,2 [F,A,]2 [G,A,=E]2 |!<(! [F,A,F] z[K:treble] [=C^F]2 [B,G]2 [CDA]2!<)! | %38
 [B,DB] (G,/A,/ .B,)._E!<(! .D.C.B,.A, | %39
[K:bass] .G,.E,.D,.C,!<)! [D,G,] z z[K:treble]!f! !>![GBc=e] | %40
 !>![F_Acf][K:bass] (F,/G,/ ._A,)._D .C.B, (A,/B,/G,/A,/ | %41
 F,2) z [F,_DF] [F,CF] z z[K:treble] !>![F_AB=d] | !>![EGBe]2 [EG]2 [EB]2 [Gg][=A=a] | %43
 !>!d'/a/^f/d/ !>!b/g/=e/^c/ !>!a/f/d/A/ !>!g/e/c/B/ | %44
 !>!^f/d/A/^F/ !>!=e/^c/B/G/ !>![FAd] z [_EG]2 | d/A/^F/D/ B/G/=E/^C/!>(! A/F/D/A,/ G/E/C/B,/ | %46
[K:bass] ^F/D/A,/^F,/ =E/^C/B,/G,/!>)!!mf! [F,A,D]!<(! z[K:treble] [^FA]2!<)! | %47
!f! [D=FB]4 [C_EB]4 | [DFB]4 [CGB]4 | [B,FB]4 ([B,DB][CEc] [DFd]2) | d2 (cB) A2 =B2 | %51
 [EGc]4 [DFc]4 | [CEc]4 [D_Ac]4 | [CGc]2 (=A=B) (c[Bd]) e2 | [EGe]2 ([Fd][Ec]) [D_B]2 [CEF]2 | %55
!p! [DFB]4 [CEB]4 |"_cresc." [B,DB]4 c2 (B!courtesy!=A) | [EB]4 [D_AB]4 | [EGB]4 c2 (B=A) | %59
 [GB] z!p! B4 d2- | d2 (B/c/B/c/ B)B/c/ (B/c/B/c/ | B2)!<(! z [DF] [DF]2 z [DF] | %62
 [=EG]2 z [EG] [EG]2 z [EG]!<)! |!f! [FA]2 _d'/b/g/=e/ c'/a/f/c/ b/g/e/_d/ | %64
 a/f/c/A/ g/=e/_d/B/ [Acf] z z2 | %65
!ff!!8va(! a'/=e'/^c'/a/ f'/d'/=b/^g/ e'/c'/a/=e/ d'/b/g/f/!8va)! | %66
 ^c'/a/=e/^c/ =b/^g/f/d/ [cea] z!mf! [A=cf]F | [_Bd]F"_cresc."[=Bdg]F [c=e]G[^cea]A | %68
 [df]A[=eg=c']c [fa] z [^c=ef]F | [Bd]F!>![dfg]G [=c=e]G!>![ega]A | [df]A[=Bfg]G [=EGc]2 [CD^Fd]2 | %71
!f! .[_B,DG]2 z!p! .[_E^F] .[DG]2 z .[FA] | .[DG]2 z .[E^F] .[DG]2 z .[FA] | .[DG]2 [Bd]2 A2 D^C | %74
[K:bass] .[F,A,D].B,.A,.G,!>(! .F,.=E,.D,.^C,!>)! | .D,.F, [A,,A,]6 | %76
[K:treble]!p! .A.=c =e2 (c/d/e/f/ e2) | [=B,=B]4 [B,B]4 | .=B.=d ^f2 (d/=e/f/g/ f2) | %79
!p! (^F2"_cresc." ^E2) (^c=e)^gg |!mf!!>(! (^G2 =G2)!>)!!mf!!<(! (e_g)_bb!<)! | %81
!f! [=B=e=b]^geB geB^G | =e/=B/^c/^d/ e/^f/^g/a/ =b/e/f/g/ a/b/^c'/=d'/ | _e'=c'a_g c'agc | %84
 e/c/A/=B/ c/d/e/f/ _g/e/c/d/ e/f/g/=a/ |!ff! [B_b]f'/d'/ _g'/e'/c'/a/ f'/d'/b/f/ e'/c'/a/_g/ | %86
 d'/b/f/d/ c'/a/_g/e/!<(! [dfb] z z2!<)! | d'/a/^f/d/ b/g/=e/^c/ a/f/d/A/ g/e/c/B/ | %88
 ^f/d/A/^F/ =e/^c/B/G/!<(! [FAd] z [=CD]2!<)! |!ff! x2 =B,/D/^F/G/ x2 A,/C/F/G/ | %90
 x2 G,/=B,/D/G/ x2 A,/=E/G/A/ | x2 =B,/D/G/=B/ x2 B,/=E/G/B/ | %92
 z [DGd][=EGc][EG=B] [^FA]2 [DE^GB]2 | x2 C/=E/^G/A/ x2 =B,/D/^G/A/ | %94
 x2 A,/C/=E/A/ x2 ^G,/=B,/F/^G/ | x2 A,/C/=E/A/ x2 C/E/A/c/ | %96
 z !tenuto![=Ec=e]!tenuto![D=Bd]!tenuto![CAc] (([=B,GB]2 [CDA]2)) | x2 =B,/D/^F/G/ x2 A,/C/F/G/ | %98
 x2 G,/=B,/D/G/ z/!ff! D/=B/d/ x [Bdg]/G/ | x2 G/A/d/g/ x2 G/=B/d/g/ | %100
 x2 G/A/=e/g/ z/ ^F/^d/^f/ x [df=b]/=B/ |!p! x [=B=eg]/G/!p! z G2 G2 G | %102
 z/ A/G/A/ G/A/G/A/ G/A/G/A/ G/A/G/A/ | G2 z"_cresc." [=B,D] [B,D]2 z [B,D] | %104
 [^C=E]2 z [CE] z [A,A][=B,=B][CE^c] |!ff! !>![D^Fd]2 !>![_E_A_e]2 z2 !>![=EG!courtesy!_B=e]2 | %106
 z2 !>![GBdg]2 !>![Begb]2 !>![=A^c=e=a]2 | !>!D2 !>![dgbd']2 !>![_e_a=c'_e']2 !>!C2 | %108
"_rallen." !>!B,2 !>![FBdf]2 !>![^Fcd^f]2 !>!=A,2 |!ff! [GBdg] z z!p! .[E^F] .[DG]2 z .[FA] | %110
 .[DG](G/A/ .B).e .d.c.B.[^FA] | [GB]3 [GB]/[GB]/ [GB]3 [D^FA] | %112
 [DGB](G,/A,/ .B,).E .D.C.B,[K:bass][^F,A,D] | [G,B,D][K:treble] .e.=d.c .B.A.G.[A,D^F] | %114
"_dim." .[B,DG]2 .[E^FA]2 .[DGB]2 .[DFAd]2 | .[B,DG]2 .[E^FA]2 .[DGB]2 .[DFA]2 | %116
!p! z2 ([C^F][=B,G]) z2 ([Fc][G=B]) | z2!<(! ([c^f][=Bg]) ([cf][Bg]) ([cf][Bg])!<)! | %118
!f! .[_A_d_a]2 .[=Ac!courtesy!_e]2 z2 .[=DG_B]2 | z2!p! .[CE_A]2 .[B,DG]2 .[=A,D^F]2 | %120
 .[B,DG]2 z2 .[A,E^F]2 z2 | .[Bdg]2 z2 .[Ae^f]2 z2 |"_dim." .[B,DG]2 .[A,E^F]2 .[B,DG]2 .[A,EF]2 | %123
 .[B,DG]2 .[A,E^F]2 .[B,DG]2 .[A,EF]2 |!p! .[B,DG] z G,/B,/^C/D/ z2 g/b/^c'/d'/ | %125
 x4!pp! .[CD^Fd] z z2 | .[B,G] z z2 z4 |] %127
V:3
 .[G,,D,B,] z z .[G,C] .[G,B,]2 z .[D,C] | .[G,B,]2 z [D,C] [G,B,]2 z [D,C] | %2
 [G,B,] z [=E,B,D]2 [!courtesy!=F,A,]2 [A,,G,]2 | .D,,(D,,/=E,,/ .F,,).B,, .A,,.G,,.F,,.E,, | %4
 .D,,.A,,,.^C,,.A,,, .D,,.A,,,.C,,.A,,, | .D,,.A,,,.^C,,.A,,, .=B,,,.A,,,.C,,.A,,, | %6
 D,,/(D,/^C,/D,/ !courtesy!_E,/D,/C,/D,/ =E,/D,/C,/D,/ ^F,/D,/C,/D,/) | %7
 [G,,D,G,] z z .[G,^C] .[G,B,]2 z .[D,C] | .[B,D].E,.D,.C, (B,,/C,/A,,/B,,/ .G,,).D,, | %9
 G,,[B,,B,][G,,G,][A,,A,] [F,,F,][G,,G,][=E,,=E,][F,,F,] | %10
 [D,,D,][F,,F,][_E,,_E,][F,,F,] [D,,D,][E,,E,][C,,C,][D,,D,] | [B,,,B,,] z [D,,D,]4 [^D,,^D,]2 | %12
 [=E,,=E,] z z2 [E,^G,=D]2 (E,/D,/C,/=B,,/ | .A,,).F,.=E,.D, .C,.=B,,.A,,.=E,, | %14
 .A,,.D,.C,.=B,, .A,,.=E,,.C,,.E,, | .A,,.F,._E,.D, .C,._B,,.A,,.B,, | .A,,.E,.D,.G, .F,.E,.D,.C, | %17
 .G,,.G,.E,.F, .D,.E,.C,.D, | .G,,.=B,,.C,.A,, .B,,.G,,.A,,.D,, | .G,,.G,.E,.F, .D,.E,.C,.D, | %20
 .G,,.D,.C,.D, .E,.C,.D,.!courtesy!_B,, | .C,.E,.D,.E, .F,.D,.E,.C, | .D,.F,.E,.F, .G,.E,.F,.D, | %23
 E,C,_A,F, D,B,,G,E, | C,_A,,F,D, B,,G,,E,C, | [G,,E,^F,]3 [G,,E,F,] [G,,E,F,]3 [G,,E,F,] | %26
 [G,,=F,]3 [G,,F,] [G,,F,]3 [=B,,G,] | [C,G,]D,E,_A, G,F,E,D, | C,(C,/D,/ E,)_A, G,F,E,D, | %29
 C,!courtesy!_B,,=A,,G,, ^F,,G,,=E,,F,, | G,,[=F,,=F,][_E,,_E,][B,,,B,,] [C,,C,][A,,,A,,]D,D,, | %31
 .D,2 z .[G,C] .[G,B,]2 z .[D,C] | .B,2 z .[D,C] .[G,B,]2 z .[D,C] | %33
 [G,B,]2 [=E,B,D]2 [A,D]2 [A,,G,]2 | D,(D,,/=E,,/ .F,,).B,, .A,,.G,,.F,,.E,, | %35
 .D,,.A,,,.^C,,.A,,, .D,,.A,,,.C,,.A,,, | .D,,.A,,,.^C,,.A,,, .F,,.D,,.C,,.A,,, | %37
 (D,,/D,/^C,/D,/ E,/D,/C,/D,/ =E,/D,/C,/D,/ ^F,/D,/C,/D,/) | %38
 [G,,D,G,](G,,/A,,/ .B,,).E, .D,.C,.B,,.A,, | %39
 .G,,.E,,.D,,.C,, [B,,,B,,][A,,,A,,][G,,,G,,]!>![C,,C,] | %40
 !>![G,,,G,,](F,,/G,,/ ._A,,)._D, .C,.B,, (A,,/B,,/G,,/A,,/ | %41
 F,,)[_D,,_D,][C,,C,][B,,,B,,] [_A,,,_A,,][G,,,G,,][F,,,F,,]!>![B,,,B,,] | %42
 !>![E,,,E,,][C,C][B,,B,][_A,,_A,] [G,,G,][F,,F,][=E,,=E,][_E,,_E,] | %43
 [D,,D,]2[K:treble] z [^C=EGB] [D^FA]2 z [B,CEG] | %44
 [A,D^F]2 z[K:bass] [G,B,^C=E] [D,A,D][_B,,,_B,,][=C,,=C,][^C,,^C,] | %45
 [D,,D,]2 z [^C,=E,G,B,] [D,^F,A,]2 z [B,,C,E,G,] | %46
 [A,,D,^F,]2 z (^C, D,)[D,,D,][^C,,C,][=C,,=C,] | %47
!ped! ([B,,,B,,]D,=F,B,)!ped-up!!ped! (G,,B,,E,G,)!ped-up! | %48
!ped! (F,,B,,D,F,)!ped-up!!ped! (E,,G,,B,,E,)!ped-up! | %49
!ped! (D,,F,,B,,D,)!ped-up! (B,,[G,,G,][F,,F,][E,,E,]) | %50
 ([D,,D,][C,,C,][D,,D,][E,,E,] [F,,F,][E,,E,][D,,D,][G,,G,]) | %51
!ped! ([C,,C,]E,G,C)!ped-up!!ped! (_A,,C,F,_A,)!ped-up! | %52
!ped! (G,,C,E,G,)!ped-up!!ped! (F,,_A,,C,F,)!ped-up! | %53
!ped! (E,,G,,C,G,,!ped-up! [E,,E,][D,,D,][C,,C,]G,,) | %54
 ([=B,,,=B,,][C,,C,][D,,D,][E,,E,] [F,,F,][G,,G,][A,,A,][F,,F,]) | %55
!ped! (B,,D,F,B,)!ped-up!!ped! (G,,B,,E,G,)!ped-up! | %56
!ped! (F,,B,,D,F,)!ped-up!!ped! (_A,,D,F,_A,)!ped-up! | %57
!ped! (G,,B,,E,G,)!ped-up!!ped! (F,,B,,D,F,)!ped-up! | %58
!ped! (E,,G,,B,,E,)!ped-up!!ped! (D,,^F,,A,,D,)!ped-up! | %59
 G,, z (_A,/B,/A,/B,/ G,/B,/G,/B,/ _G,/B,/G,/B,/ | %60
 F,/B,/F,/B,/) (_A,/B,/A,/B,/ G,/B,/G,/B,/ _G,/B,/G,/B,/- | [F,B,]2) z [F,B,] [F,B,]2 z [F,B,] | %62
 [F,B,C]2 z [F,B,C] [F,B,C]2 z [F,B,C] | [F,A,C]2 z[K:treble] [=EGB_d] [FAc]2 z [_DEGB] | %64
 [CFA]2 z [B,_D=EG] [F,A,CF][K:bass]([F,,F,][G,,G,][^G,,^G,]) | %65
 [A,,A,]2 z[K:treble] [^G=B=df] [A^c=e]2 z [FGBd] | %66
 [=EA^c]2 z [DF^G=B] [A,^C=EA] z[K:bass] (([F,,F,]2 | %67
 [_B,,F,])) z (([G,,G,]2 [=C,G,])) z (([A,,A,]2 | %68
 [D,A,])) z (([C,G,B,=E]2 [F,A,CF])) z ((([A,,F,A,]2 | %69
 [B,,F,B,]))) z (((!>![=B,,G,=B,]2 [C,G,C]))) z (((!>![^C,A,^C]2 | %70
 [D,A,D]))) z [G,,G,]2 [=C,,=C,][_B,,,_B,,][A,,,A,,][D,,D,] | %71
 .[G,,,G,,]2 z .[G,C] .[G,B,]2 z .[D,C] | .[G,B,]2 z .[G,C] .[G,B,]2 z .[D,C] | %73
 .[G,B,]2 [=E,B,D]2 [A,D]2 [A,,G,]2 | .D,,(D,,/=E,,/ .F,,).B,, .A,,.G,,.F,,.E,, | %75
 .D,,.A,,,.^C,,.A,,, .D,,.A,,,.C,,.A,,, | .[=C,=E,].E,,.[=B,,E,].E,, .[A,,E,].E,,.[^G,,E,].E,, | %77
 .=E,.=B,,.^D,.B,, .^C,.B,,.D,.B,, | .[=D,^F,].^F,,.[^C,F,].F,, .[=B,,F,].F,,.[^A,,F,].F,, | %79
 .^C.^C,.[^G,C].C, .[=E,G,].^G,,.[^D,G,].G,, | .[=B,^D].^D,.[^A,D].D, .[^G,_B,]._B,,.[=F,B,].B,, | %81
 [^G,=B,=E]2 z [G,B,E] [G,B,E]2 z [G,B,E] | [^G,=B,=E]2 z [G,B,E] [G,B,E]=B^GE | %83
 [=A,=C_E_G]2 z [A,CEG] [A,CEG]2 [A,,E,A,]2 | _GECA, ECA,_G, | %85
 [B,,F,B,] z z[K:treble] [Ace_g] [Bdf]2 z [_G=Ace] | %86
 [FBd]2 z [E_GAc] [DFB][K:bass] [B,,,B,,][C,,C,][^C,,^C,] | %87
 [D,,D,]2 z[K:treble] [^C=E=GB] [D^FA]2 z [B,!courtesy!^CEG] | %88
 [A,D^F]2 z[K:bass] [G,B,^C=E] [D,A,D]^C,=C,A,, | %89
!ped! G,,/=B,,/D,/G,/ x2!ped-up!!ped! =E,,/G,,/C,/=E,/ x2!ped-up! | %90
!ped! D,,/G,,/=B,,/D,/ x2!ped-up!!ped! C,,/=E,,/A,,/C,/ x2!ped-up! | %91
!ped! =B,,,/D,,/G,,/=B,,/ x2!ped-up!!ped! =E,,/G,,/B,,/=E,/ x2!ped-up! | %92
 [C,,C,][=B,,,=B,,][C,,C,][^C,,^C,] [D,,D,][=C,,=C,][=B,,,=B,,][=E,,=E,] | %93
!ped! A,,/C,/=E,/A,/ x2!ped-up!!ped! F,,/A,,/D,/F,/ x2!ped-up! | %94
!ped! =E,,/A,,/C,/=E,/ x2!ped-up!!ped! D,,/F,,/=B,,/D,/ x2!ped-up! | %95
!ped! C,,/=E,,/A,,/C,/ x2!ped-up!!ped! A,,/C,/=E,/A,/ x2!ped-up! | %96
 !tenuto![^G,,,^G,,]!tenuto![A,,,A,,]!tenuto![=B,,,=B,,]!tenuto![C,,C,] !tenuto![^C,,^C,]!tenuto![D,,D,]!tenuto![=E,,=E,]!tenuto![D,,D,] | %97
!ped! =G,,/=B,,/D,/G,/ x2!ped-up!!ped! =E,,/G,,/=C,/=E,/ x2!ped-up! | %98
!ped! D,,/G,,/=B,,/D,/ x2!ped-up!!ped! [!courtesy!=F,,!courtesy!=F,]4!ped-up! | %99
!ped! =E,/A,/C/=E/ x2!ped-up!!ped! D,/G,/=B,/D/ x2!ped-up! | %100
!ped! E,/G,/A,/=E/ x2!ped-up!!ped! [=B,,,=B,,]4!ped-up! | %101
!ped! =E,,/=E,/ x!ped-up!!ped! (=F,/G,/F,/G,/!ped-up!!ped! E,/G,/E,/G,/!ped-up!!ped! _E,/G,/E,/G,/!ped-up! | %102
!ped! D,/)G,/D,/G,/!ped-up!!ped! F,/G,/F,/G,/!ped-up!!ped! =E,/G,/E,/G,/!ped-up!!ped! _E,/G,/E,/(G,/!ped-up! | %103
 [D,G,]2) z [D,G,] [D,G,]2 z [D,G,] | [D,G,A,]2 z [D,G,A,] [D,G,A,]2 z [D,G,A,] | %105
 !>![D,^F,A,]2 !>![!courtesy!=C,_E,_A,]2 z2 !>![^C,G,!courtesy!_B,]2 | %106
"^ritten." z2 !>![D,G,B,D]2 !>![E,G,B,E]2 !>![=A,,^C,=E,=A,]2 | %107
 !>![D,,D,]2 !>![B,D]2 !>![_A,=C_E]2 !>![C,,C,]2 | %108
 !>![B,,,B,,]2 !>![F,B,D]2 !>![D,^F,CD]2 !>![=A,,,=A,,]2 | %109
"^a tempo" [G,,,G,,] z z .[G,C] .[G,B,]2 z .[D,C] | .[G,B,].E,.D,.C, .B,,.A,,.G,,.D,, | %111
 .G,,.[E,,E,].[D,,D,].[C,,C,] .[B,,,B,,].[A,,,A,,].[G,,,G,,].D,, | %112
 .[G,,,G,,] .E,.D,.C, .B,,.A,,.G,,.D,, | .G,,(G,,/A,,/ .B,,).E, .D,.C,.B,,.D,, | %114
 .G,,2 .[C,G,]2 .[G,,G,]2 .[D,,D,]2 | .G,,2 .[C,G,]2 .[G,,G,]2 .[D,,D,]2 | %116
 (_A,,G,,) z2 (A,,G,,) z2 | (_A,,G,,) (A,,G,,) (A,,G,,) (A,,G,,) | %118
 .[!courtesy!=F,,!courtesy!=F,]2 .[^F,,^F,]2 z2 .[G,,G,]2 | z2 z .C, z .D, z .D,, | %120
 .G,,2 z2 .[C,G,]2 z2 | .G,2 z2 .[CG]2 z2 | .G,,2 .[C,G,]2 .[G,,G,]2 .[C,G,]2 | %123
 .[G,,G,]2 .[C,G,]2 .[G,,G,]2 .[C,G,]2 |!ped! G,,^C,/D,/ z2[K:treble] G/B/^c/d/ z2!ped-up! | %125
 .g' z z2[K:bass] .[D,,D,] z z2 | .[G,,D,G,] z z2 z4 |] %127
V:4
 x8 | x8 | x2 (AG) x2 A,2 | x[K:bass] x7 | x2 (=E,2 F,2 E,2) | z2 =E,2 D,2[K:treble] x2 | x8 | x8 | %8
 x4[K:bass] x4 | x2[K:treble] x6 | x8 | x6 [CF]2 | x8 | x8 | A,2 x6 | x8 | [A,C]3 z x4 | x8 | %18
 [=B,D]4 z4 | x8 | x8 | x8 | x8 | x8 | x8 | x8 | x8 | x8 | x8 | x8 | x8 | x8 | x8 | %33
 x2 (AG) .=F.=E A,2 |[K:bass] x8 | x8 | B,,2 =E,2 D,2 x2 | x2[K:treble] x6 | x8 | %39
[K:bass] x7[K:treble] x | x[K:bass] x7 | x7[K:treble] x | x8 | x8 | x8 | x8 | %46
[K:bass] x6[K:treble] x2 | x8 | x8 | x8 | [FB]2 F2 F2 [FG]2 | x8 | x8 | A,2 G2 G2 G2 | C2 G2 x4 | %55
 x8 | x4 [DF]4 | x8 | x4 [D^F]4 | D z (=F2 =E2) (_E2 | D2) (F2 =E2) (_E2 | D2) x6 | x8 | x8 | x8 | %65
!8va(! x8!8va)! | x8 | x8 | x8 | x8 | x8 | x8 | x8 | x2 (AG) (=F=E) A,2 |[K:bass] x8 | %75
 z2 (=E,2 F,2 E,2) |[K:treble] x8 | (G2 ^F2) (=E2 F2) | x8 | x4 (^c2 ^B2) | %80
 x4 (_e2 !courtesy!=d2) | x8 | x8 | x8 | x8 | x8 | x8 | x8 | x8 | x8 | x8 | x8 | x8 | x8 | x8 | %95
 x8 | x8 | x8 | x8 | x8 | x8 | x2 (=D2 ^C2) (=C2 | =B,2) (D2 ^C2) =C2 | =B,2 x6 | x4 [^C=E]2 x2 | %105
 x8 | x8 | x8 | x8 | x8 | x8 | x8 | x7[K:bass] x | x[K:treble] x7 | x8 | x8 | x8 | x8 | x8 | x8 | %120
 x8 | x8 | x8 | x8 | x8 | x8 | x8 |] %127
V:5
 x8 | x8 | x8 | x8 | x8 | x8 | x8 | x8 | x8 | x8 | x8 | x8 | x8 | x8 | x8 | x8 | x8 | x8 | x8 | %19
 x8 | G,,8 | G,,8 | G,,8 | G,,8 | G,,8 | x8 | x8 | x8 | x8 | x8 | x8 | x8 | x8 | x8 | x8 | x8 | %36
 x8 | x8 | x8 | x8 | x8 | x8 | x8 | x2[K:treble] x6 | x3[K:bass] x5 | x8 | x8 | x8 | x8 | x8 | x8 | %51
 x8 | x8 | x8 | x8 | x8 | x8 | x8 | x8 | x8 | x8 | x8 | x8 | x3[K:treble] x5 | x5[K:bass] x3 | %65
 x3[K:treble] x5 | x6[K:bass] x2 | x8 | x8 | x8 | x8 | x8 | x8 | x8 | x8 | x8 | x8 | x8 | x8 | x8 | %80
 x8 | x8 | x8 | x8 | x8 | x3[K:treble] x5 | x5[K:bass] x3 | x3[K:treble] x5 | x3[K:bass] x5 | x8 | %90
 x8 | x8 | x8 | x8 | x8 | x8 | x8 | x8 | x6 [=B,D^F]/G/ x | x8 | x6 [A,^D^E]/^F/ x | x8 | x8 | x8 | %104
 x8 | x8 | x8 | x8 | x8 | x8 | x8 | x8 | x8 | x8 | x8 | x8 | x8 | x8 | x8 | x8 | x8 | x8 | x8 | %123
 x8 | x4[K:treble] x4 | x4[K:bass] x4 | x8 |] %127

